X: 2095
T: Mrs GENERAL MAXWELL
C:
Q: "Reel."
R: Reel.
%R: reel
B: James Kerr "Merry Melodies" v.2 p.13 #095
Z: 2016 John Chambers <jc:trillian.mit.edu>
N: There should be a segno on the first bar line, and a "d.S." at the end.
M: C
L: 1/8
K: C
uG |\
c2(ec) dGBG | c2(ec) dAAB |\
c2(ec) dGBG | cAGc ECC ::\
ue |\
(ga)gf (ec)ce | (ga)ge (fd)de |\
(ga)gf (ec)af |[1 ecGB c3 :|[2 ecdB cGAB |]
